!!!COM: Scarlatti, Domenico
!!!CDT: 1685///-1757///
!!!OTL: Sonata in D Major, K.478, L.12
!!!SCT: K. 478
!!!SCT: L. 012
!!!OMD: Andante cantabile
**kern	**kern	**dynam
*staff2	*staff1	*staff1/2
*Icemba	*Icemba	*Icemba
*>[A,A,B,B]	*>[A,A,B,B]	*>[A,A,B,B]
*>norep[A,B]	*>norep[A,B]	*>norep[A,B]
*>A	*>A	*>A
*clefF4	*clefG2	*clefG2
*k[f#c#]	*k[f#c#]	*k[f#c#]
*M3/4	*M3/4	*M3/4
*MM92	*MM92	*MM92
=1-	=1-	=1-
4d\ 4f#\	(8.aa\L	mf
.	16bb\Jk	.
4e\ 4g\	4dd\	.
4e\ 4g\	4cc#\	.
=2	=2	=2
2f#\	16dd\LL)	.
.	(16a\	.
.	16b\	.
.	16cc#\JJ	.
.	16dd\LL	.
.	16ee\	.
.	16ff#\	.
.	16gg\JJ	.
*	*^	*
4F#\ 4d\	[4aa/)	8aa\L	.
.	.	(8a\J	.
=3	=3	=3	=3
4G\	8aa/]	4b\)	.
.	(4gg/	.	.
4A\	.	4dd\	.
.	4ff#/	.	.
4AA/	.	4cc#\	.
.	8ee/	.	.
*	*v	*v	*
=4	=4	=4
4D\	16dd\ 16ff#\LL)	.
.	(16a\	p
.	16b\	.
.	16cc#\JJ	.
4E\	16dd\LL	.
.	16ee\	.
.	16ff#\	.
.	16gg\JJ	.
*	*^	*
4F#\ 4d\	(4aa/)	8aa\L	.
.	.	8a\J	.
=5	=5	=5	=5
4G\	8aa/	4b\)	.
.	(4gg/	.	.
4A\	.	4dd\	.
.	4ff#/	.	.
4AA/	.	4cc#\	.
.	8ee/)	.	.
*	*v	*v	*
=6	=6	=6
*^	*	*
2d/	4D\	(8ff#\L	mf
.	.	8gg\	.
.	4E\	8cc#\	.
.	.	8dd\	.
4d/	4F#\	8a\	.
.	.	8b\J	.
=7	=7	=7	=7
(2d/	4G\	8e/	.
.	.	4f#/	.
.	4A\	.	.
.	.	8g/	.
.	.	aq/	.
4c#/)	4A\	8g/L	.
.	.	16f#/L	.
.	.	16e/JJ)	.
=8	=8	=8	=8
2d/	4D\	(8ff#\L	mf
.	.	8gg\	.
.	4E\	8cc#\	.
.	.	8dd\	.
4d/	4F#\	8a\	.
.	.	8b\J	.
=9	=9	=9	=9
2d/	4G\	8e/L	.
.	.	8f#/	.
.	4A\	8g/	.
.	.	8f#/	.
4r	4B\	8e/	.
.	.	8d/J	.
*v	*v	*	*
=10	=10	=10
(16c#\LL	[2.a/)	f
16d\	.	.
16A\	.	.
16B\JJ	.	.
16F#\LL	.	.
16G\	.	.
16C#\	.	.
16D\JJ	.	.
16AA/LL	.	.
16BB/	.	.
16FF#/	.	.
16GG/JJ	.	.
=11	=11	=11
4CC#/)	8a/L]	.
.	8ee/	p
4CC#/	8cc#/	.
.	8a/	.
4CC#/	8e/	.
.	8c#/J	.
=12	=12	=12
(16c#\LL	[2.a/	f
16d\	.	.
16A\	.	.
16B\JJ	.	.
16F#\LL	.	.
16G\	.	.
16C#\	.	.
16D\JJ	.	.
16AA/LL	.	.
16BB/	.	.
16FF#/	.	.
16GG/JJ	.	.
=13	=13	=13
4CC#/)	8a/L]	.
.	8ee/	p
4CC#/	8cc#/	.
.	8a/J	.
(4c#\	8e/L	.
.	16f#/L	.
.	32e/L	.
.	32f#/JJJ	.
=14	=14	=14
4B\)	8g/L	.
.	8dd/	.
(4BB/	8b/	.
.	8g/J	.
4B\	8d/L	.
.	16e/L	.
.	32d/L	.
.	32e/JJJ	.
=15	=15	=15
4A\)	8f#/L	.
.	8cc#/	.
(4AA/	8a/	.
.	8f#/J	.
4A\	8c#/L	.
.	16d/L	.
.	32c#/L	.
.	32d/JJJ	.
=16	=16	=16
4G\)	8e/L	.
.	8b/	.
(4GG/	8g/	.
.	8e/J	.
4G\	8B/L	.
.	16c#/L	.
.	32B/L	.
.	32c#/JJJ	.
=17	=17	=17
8F#\L)	2d/	.
(8A\	.	.
8F#\	.	.
8D\	.	.
8AA\	[4a/	.
8BB\J	.	.
=18	=18	=18
8C#\L)	4a/]	<
(8E\	.	(
8A\	8g#^/	(
8c#\	[4.a/	(
8E\	.	(
8C#\J	.	(
=19	=19	=19
*k[f#]	*k[f#]	*k[f#]
8D\L)	4a/]	(
(8F#\	.	(
8A\	8g#^/	(
8d\	[4.a/	(
8A\	.	(
8D\J	.	(
=20	=20	=20
8C\L	4a/]	(
(8E\)	.	(
8A\	8g#^/	(
8c\	[4.a/	(
8A\	.	(
8C\J	.	(
=21	=21	=21
8D\L)	2a/_	(
(8c\	.	(
8d\)	.	(
(8D\	.	(
8C\	8a/L]	(
8c\J	[8a#/J	(
=22	=22	=22
8BB\L)	8a#/]	(
(8A#\	4b\	(
(8B\)	.	(
8BB\	4cc#\	(
8AAn\	.	(
8An\J	[8dd\	[
=23	=23	=23
8GG#\L	8dd\]	mf
(8F#\)	4dd#\	.
(8G#\)	.	.
8GG#\	4ee\	.
8FF#\	.	.
8F#\J	[8ff#\	.
=24	=24	=24
8EE/L)	8ff#\]	.
(8D#/	4gg#\	.
8E/)	.	.
(8EE/	4aa\	.
8DDn/	.	.
8Dn/J	[8bb\	.
=25	=25	=25
8CC#/L)	8bb\]	.
(8BB/	4ccc#\	.
8C#/)	.	.
(8CC#/	4ddd\	.
8BBB/)	.	.
8BB'/J	16ccc#\LL	.
.	16bb\JJ	.
=26	=26	=26
(4AAA/	16ccc#\LL	f
.	16bb\	.
.	16aa\	.
.	16gg#\JJ	.
4BBB/	16aa\LL	.
.	16gg#\	.
.	16ff#\	.
.	16ee\JJ	.
4CC#/	16aa\LL	.
.	16gg#\	.
.	16ff#\	.
.	16ee\JJ	.
=27	=27	=27
4DD/	16ff#\LL	.
.	16ee\	.
.	16dd\	.
.	16cc#\JJ	.
4EE/	16dd\LL	.
.	16cc#\	.
.	16b\	.
.	16a\JJ	.
4FF#/	16dd\LL	.
.	16cc#\	.
.	16b\	.
.	16a\JJ	.
=28	=28	=28
2EE/)	16dd#^\LL	.
.	16ee\	.
.	16b\	.
.	16g#\JJ	.
.	16e/LL	.
.	16B/	.
.	16G#/	.
.	16E/JJ	.
4EE/	4r	.
=29	=29	=29
2.r	2.r	.
=30	=30	=30
4A'\ 4cn'\	8r	.
.	(8e/L	p
4A'\ 4c'\	8fn/	.
.	8e/	.
4A'\ 4c'\	8a/	.
.	8g#/J	.
=31	=31	=31
.	eeq/	.
4B'\ 4d'\	4.dd\	mf
4B\ (4d\	.	.
.	16ccn\LL	p
.	16b\JJ	.
4cn\ 4e\)	4a/)	.
=32	=32	=32
4A'\ 4cn'\	8r	.
.	(8e/L	.
4A'\ 4c'\	8fn/	.
.	8e/	.
4A'\ 4c'\	8a/	.
.	8g#/J	.
=33	=33	=33
.	eeq/	.
4B'\ 4d'\	4.dd\	mf
4B\ (4d\	.	.
.	(16ccn\LL)	p
.	16b\JJ	.
4c#\ 4e\)	4a/)	.
*clefG2	*	*
=34	=34	=34
4d'/ 4fn'/	8r	.
.	(8a\L	.
4d'/ 4f'/	8b-\	.
.	8a\	.
4d'/ 4f'/	8dd\	.
.	8cc#\J	.
=35	=35	=35
.	aaq/	.
4e'/ 4g'/	4.gg\	mf
(4e/ 4g/	.	.
.	16ffn\LL	p
.	16ee\JJ	.
4fn/) 4a/	4dd\)	.
=36	=36	=36
*k[f#c#]	*k[f#c#]	*k[f#c#]
4d'/ 4fn'/	8r	.
.	(8a\L	.
4d'/ 4f'/	8b-\	.
.	8a\	.
4d'/ 4f'/	8dd\	.
.	8cc#\J	.
=37	=37	=37
.	aaq/	.
4e'/ 4g'/	4.gg\	mf
(4e/ 4g/	.	.
.	16ffn\LL	p
.	16ee\JJ	.
4fn/) 4a/	4dd\)	.
=38	=38	=38
*	*^	*
4fn/ 4a/	8r	8r	.
.	(4ddd/	2dd\	<
4f/ 4a/	.	.	(
.	16cccn/LL	.	(
.	16bb/J	.	(
4f/ 4a/	8aa/	.	(
.	8ddd/J)	8r	(
=39	=39	=39	=39
4e/ 4a/	8r	8r	(
.	(4cccn/	2ccn\	(
4e/ 4a/	.	.	(
.	16bb/LL	.	(
.	16aa/J	.	(
4e/ 4a/	8gg#/	.	(
.	8aa/J)	8r	(
=40	=40	=40	=40
4d/ 4g#/	8r	8r	(
.	(4bb/	2b\	(
4d/ 4g#/	.	.	(
.	16aa/LL	.	(
.	16gg#/J	.	(
4d/ 4g#/	8ff#/	.	(
.	8gg#/J)	8r	(
=41	=41	=41	=41
4cn/ 4e/	8r	8r	(
.	([8aa/	2a\	(
4c/ 4e/	16aa/LL]	.	(
.	16ggn/	.	(
.	16ffn/	.	(
.	16ee/JJ	.	(
4c/ 4e/	16aa/LL	.	(
.	16gg/	.	(
.	16ff/	8r	(
.	16ee/JJ	.	[
*	*v	*v	*
*clefF4	*	*
=42	=42	=42
4D\ 4d\	16ffn\LL	mf
.	16gg\	.
.	16aa\	.
.	16gg\JJ	.
4D\ 4d\	16ff\LL	.
.	16ee\	.
.	16dd\	.
.	16ccn\JJ	.
4D\ 4d\	16b/LL	.
.	16a/	.
.	16g#/	.
.	16f#/JJ	.
=43	=43	=43
2.EE/	16e\LL)	.
.	(16ee\	.
.	16dd\	.
.	16cc#\JJ	.
.	16b/LL	.
.	16a/	.
.	16g#/	.
.	16f#/JJ	.
.	16e/LL	.
.	16d/	.
.	16c/	.
.	16B/JJ)	.
=44	=44	=44
(16d#\LL	2.r	.
16e\	.	.
16B\	.	.
16c#\JJ	.	.
16G#\LL	.	.
16A\	.	.
16D#\	.	.
16E\JJ	.	.
16BB/LL	.	.
16C#/	.	.
16GG#/	.	.
16AA/JJ	.	.
=45	=45	=45
*k[f#c#]	*k[f#c#]	*k[f#c#]
4EE/)	8r	.
.	8ee\L	p
(4E\	8g#\	<
.	8a\	(
4EE/	8b\	(
.	8cc\J	(
=46	=46	=46
4DD/)	8r	(
.	8ff#\L	(
(4D\	8b\	(
.	8cc\	(
4DD/	8dd\	(
.	[8gg#\J	[
=47	=47	=47
2CC#/)	8gg#\L]	mf
.	8aa\	.
.	8cc\	.
.	8dd\	.
(4C#/	8ee\	.
.	8ff#\J	.
=48	=48	=48
.	eeq/	.
4D\	8dd\L	.
.	16cc\L	.
.	16b\JJ	.
4E\	4a/	.
.	g#q/	.
4EE/)	4g#/	.
=49	=49	=49
4AA\ 4A\	8a\L	mf
.	(8gg#\	.
4BB\ 4B\	8aa\	.
.	8cc\	.
4C#\ 4c#\	8dd\	.
.	[8ee\J	.
=50	=50	=50
4D\ 4d\	8ee\L]	.
.	8ee#\	.
4D\ 4d\	8ff#\)	.
.	(8b\	.
4G#\ 4g#\	8cc\	.
.	[8dd\J	.
=51	=51	=51
*k[f#c#]	*k[f#c#]	*k[f#c#]
4C#\ 4c#\	8dd\L]	.
.	8dd#\	.
4C#\ 4c#\	8een\)	.
.	8a\	.
4F#\ 4f#\	(8b\	.
.	[8cc\J	.
=52	=52	=52
4D\ 4d\	8cc\] 8ee\L	.
.	8b\ 8ddn\J)	.
4E\ 4e\	8b\ (8dd\L	.
.	8a\ 8cc\J)	.
4E\ 4e\	8a\ (8cc\L	.
.	8g#\ 8b\J	.
=53	=53	=53
4AAA/ 4AA/	8a/L)	.
.	(8g#/	.
4BBB/ 4BB/	8a/	.
.	8c/	.
4CC#/ 4C#/	8d/	.
.	[8e/J	.
=54	=54	=54
4DD/ 4D/	8e/L]	>
.	8e#/	)
4DD/ 4D/	8f#/)	]
.	(8B/	p
4GG#/ 4G#/	8c/	.
.	[8d/J	.
=55	=55	=55
4CC#/ 4C#/	8d/L]	.
.	8d#/	.
4CC#/ 4C#/	8e/)	.
.	(8A/	.
4FF#/ 4F#/	8B/	.
.	[8c/J	.
=56	=56	=56
4DD/ 4D/	8c/] 8e/L	.
.	8B/ 8d/J	.
4EE/ 4E/	(8B/ 8dn/L)	.
.	8A/) 8c/J	.
4EE/ 4E/	(8A/ 8c/L	.
.	8G#/) 8B/J	.
=57	=57	=57
*k[f#c#]	*k[f#c#]	*k[f#c#]
4AA\ (4A\	8r	.
.	([8ccc#\	mf
4BB\ 4B\	16ccc#\LL]	.
.	16aa\	.
.	16ee\	.
.	16aa\JJ)	.
4C#\ 4c#\	4r	.
=58	=58	=58
4D\ 4d\	8cc#\ 8ee\L	p
.	8b\ 8dd\J	.
4E\ 4e\)	8b\ 8dd\L	.
.	8a\ 8cc#\J	.
4E\ 4e\	8a\ 8cc#\L	.
.	8g#\ 8b\J	.
=59	=59	=59
(4AAA/ 4AA/	8r	.
.	([8ccc#\	mf
4BBB/ 4BB/	16ccc#\LL]	.
.	16aa\	.
.	16ee\	.
.	16aa\JJ)	.
4CC#/ 4C#/	4r	.
=60	=60	=60
4DD/ 4D/	8c#/ 8e/L	p
.	8B/ 8d/J	.
4EE/) 4E/	8B/ 8d/L	.
.	8A/ 8c#/J	.
4EE/ 4E/	8A/ 8c#/L	.
.	8G#/ 8B/J	.
=61	=61	=61
2.AAA/ 2.AA/	2.A/	.
=62:|!|:	=62:|!|:	=62:|!|:
*>B	*>B	*>B
.	(gg#q/	.
(16g#\LL	[2.aa\)	f
16a\	.	.
16e\	.	.
16f#\JJ	.	.
16c#\LL	.	.
16d\	.	.
16G#\	.	.
16A\JJ	.	.
16E\LL	.	.
16F#\	.	.
16C#\	.	.
16D\JJ	.	.
=63	=63	=63
2AA/)	8aa\L]	.
.	8aa'\J	mf
*	*^	*
.	4r	8a\L	.
.	.	8b\	.
(4F#\	[4aa/	8cc#\	.
.	.	8dd#\J	.
=64	=64	=64	=64
4Gn\	8aa/]	8ee\L	.
.	4gg/	8b\	.
4A\	.	8ccn\	.
.	4aa/	8ff#\	.
4B\)	.	8ee\ 8gg\	.
.	8ryy	8dd#\ 8ff#\J	.
*	*v	*v	*
=65	=65	=65
.	ggq/	.
.	(dd#q\	.
(16d#\LL	[2.ee\) [2.gg\	f
16e\	.	.
16B\	.	.
16cn\JJ	.	.
16G\LL	.	.
16A\	.	.
16D#\	.	.
16E\JJ	.	.
16BB/LL	.	.
16Cn/	.	.
16GG/	.	.
16AA/JJ	.	.
=66	=66	=66
2EE/)	8ee\] 8gg\L]	.
.	8gg'\J	mf
*	*^	*
.	4r	8g\L	.
.	.	8a\	.
(4E\	[4gg/	8b\	.
.	.	8cc#\J	.
*	*v	*v	*
=67	=67	=67
4F#\	8dd\ 8gg\L]	.
.	8a\ 8ff#\	.
4G\	8b\ 8aa\	.
.	8ee\ 8gg\	.
4A\)	8dd\ 8ff#\	.
.	8cc#\ 8ee\J	.
=68	=68	=68
.	eeq/	.
.	(cc#q\	.
(16c#\LL	[2.dd\) [2.ff#\	f
16d\	.	.
16A\	.	.
16B\JJ	.	.
16F#\LL	.	.
16G\	.	.
16C#\	.	.
16D\JJ	.	.
16AA/LL	.	.
16BB/	.	.
16FF#/	.	.
16GG/JJ	.	.
=69	=69	=69
*	*^	*
(4DD/)	8ff#/L]	4dd\]	.
.	8ff#/J	.	.
4FF#/	8aa/L	4a\	.
.	16gg/L	.	.
.	16ff#/JJ	.	.
4GG/	8ee/L	4b\	.
.	8dd/J	.	.
*	*v	*v	*
=70	=70	=70
2.AA/)	16gg#\LL	.
.	16aa\	.
.	16ee\	.
.	16ff#\JJ	.
.	16cc#\LL	.
.	16dd\	.
.	16g#\	.
.	16a\JJ	.
.	16e/LL	.
.	16f#/	.
.	16c#/	.
.	16d/JJ	.
=71	=71	=71
16G#\LL	2.r	.
16A\	.	.
16E\	.	.
16F#\JJ	.	.
16C#/LL	.	.
16D/	.	.
16GG#/	.	.
16AA/JJ	.	.
4AAA/	.	.
=72	=72	=72
2.r	2.r	.
*clefG2	*	*
=73	=73	=73
4d'/ 4fn'/	8r	.
.	(8a\L	p
4d'/ 4f'/	8b-\	.
.	8a\	.
4d'/ 4f'/	8dd\	.
.	8cc#\J	.
=74	=74	=74
.	aaq/	.
4e'/ 4g'/	4.gg\	mf
(4e/ 4g/	.	.
.	16ffn\LL	p
.	16ee\JJ	.
4fn/) 4a/	4dd\)	.
=75	=75	=75
4d'/ 4fn'/	8r	.
.	(8a\L	.
4d'/ 4f'/	8b-\	.
.	8a\	.
4d'/ 4f'/	8dd\	.
.	8cc#\J	.
=76	=76	=76
.	aaq/	.
4e'/ 4g'/	4.gg\	mf
(4e/ 4g/	.	.
.	16ffn\LL	p
.	16ee\JJ	.
4f#/) 4a/	4dd\)	.
=77	=77	=77
4g'/ 4b-'/	8r	.
.	(8dd\L	.
4g'/ 4b-'/	8ee-\	.
.	8dd\	.
4g'/ 4b-'/	8gg\	.
.	8ff#\J	.
=78	=78	=78
.	dddq/	.
4a'/ 4ccn'/	4.cccn\	mf
4a\ (4cc\	.	.
.	16bb-\LL	p
.	16aa\JJ	.
4b-\ 4dd\)	4gg\)	.
=79	=79	=79
4g'/ 4b-'/	8r	.
.	(8dd\L	.
4g'/ 4b-'/	8ee-\	.
.	8dd\	.
4g'/ 4b-'/	8gg\	.
.	8ff#\J	.
=80	=80	=80
.	dddq/	.
4a'/ 4ccn'/	4.cccn\	mf
4a\ (4cc\	.	.
.	16bb-\LL	p
.	16aa\JJ	.
4b-\ 4dd\)	4gg\)	.
=81	=81	=81
*	*^	*
4b-\ 4dd\	8r	8r	.
.	(4ggg/	2gg\	<
4b-\ 4dd\	.	.	(
.	16fff#/LL	.	(
.	16eee/J	.	(
4b-\ 4dd\	8ddd/	.	(
.	8eee/J)	8r	(
=82	=82	=82	=82
4a\ 4dd\	8r	8r	(
.	(4fffn/	2ffn\	(
4a\ 4dd\	.	.	(
.	16eee/LL	.	(
.	16ddd/J	.	(
4a\ 4dd\	8ccc#/	.	(
.	8ddd/J)	8r	(
=83	=83	=83	=83
4g/ 4cc#/	8r	8r	(
.	(4eee/	2ee\	(
4g/ 4cc#/	.	.	(
.	16ddd/LL	.	(
.	16ccc#/J	.	(
4g/ 4cc#/	8bb/	.	(
.	8ccc#/J)	8r	(
=84	=84	=84	=84
4fn/ 4a/	8r	8r	(
.	[8ddd/	2dd\	(
4f/ 4a/	(16ddd/LL]	.	(
.	16cccn/	.	(
.	16bb-/	.	(
.	16aa/JJ	.	(
4f/ 4a/	16ddd/LL	.	(
.	16ccc/	.	(
.	16bb-/	8r	(
.	16aa/JJ	.	[
=85	=85	=85	=85
4g/ 4b-/	16bb-\LL	4ddd\	mf
.	16cccn\	.	.
.	16ccc\JJ	.	.
.	16bb-\LL	.	.
*	*v	*v	*
4g/ 4b-/	16aa\	.
.	16gg\	.
.	16ffn\JJ	.
.	16ee\LL	.
*clefF4	*	*
4G\	16dd\	.
.	16cc#\	.
.	16dd\JJ	.
.	16r	.
=86	=86	=86
2AA/	16gg#\LL)	f
.	16aa\	.
.	16ee\	.
.	16ff#\JJ	.
.	16cc#\LL	.
.	16dd\	.
.	16g#\	.
.	16a\JJ	.
4r	16e/LL	.
.	16f#/	.
.	16c#/	.
.	16d/JJ	.
=87	=87	=87
16G#\LL	2.r	.
16A\	.	.
16E\	.	.
16F#\JJ	.	.
16C#/LL	.	.
16D/	.	.
16GG#/	.	.
16AA/JJ	.	.
4AAA/	.	.
=88	=88	=88
2.r	2.r	.
=89	=89	=89
4FFn/	8r	.
.	(8fn/L	p
4FF/	8g/	.
.	8f/	.
4FF/	8b-/	.
.	8a/J	.
=90	=90	=90
*	*^	*
4FF#/	8dd'/)	4r	.
.	(4ee/	.	f
4FF#/	.	4g\	.
.	16ffn/LL	.	.
.	16dd/JJ	.	.
*	*v	*v	*
4FF#/	8a/ 8ccn/L)	.
.	(8g/ 8b-/J	.
=91	=91	=91
4FFn/	8fn/ 8a/L	.
.	8e/ 8g/	.
4FF/	8d/ 8f/	.
.	8cn/ 8e/	.
4FF/	8Bn/ 8d/	.
.	8A/ 8c/J	.
=92	=92	=92
4GG/	4G/) 4B/	p
4GG/	8a/	<
.	8g/	(
4GG/	8ccn/	(
.	8b/J	(
=93	=93	=93
*	*^	*
4GG/	8ee'/)	4r	[
.	(4ff#/	.	f
4GG/	.	4a\	.
.	16gg/LL	.	.
.	16ee/JJ	.	.
*	*v	*v	*
4GG/	8b'/ 8dd'/L)	.
.	(8a/ 8ccn/J	>
=94	=94	=94
4GG/	8g/ 8b/L	)
.	8f#/ 8a/	)
4GG/	8e/ 8g/	)
.	8d/ 8f#/	)
4GG/	8c/ 8e/	)
.	8B/ 8d/J	]
=95	=95	=95
4AA/	8A/) 8c/	p
.	(8a/L	<
4AA/	8b/	(
.	8a/	(
4AA/	8dd/	(
.	8cc/J	(
=96	=96	=96
*	*^	*
4AA/	8ff#'/)	4r	(
.	(4gg#/	.	[
4AA/	.	4b\	f
.	16aa/LL	.	.
.	16ff#/JJ	.	.
4AA/	8ee/L	8.cc\L	.
.	16aa/L	.	.
.	16ff#/JJ	16dd\Jk	.
*	*v	*v	*
=97	=97	=97
*k[f#c#]	*k[f#c#]	*k[f#c#]
*	*^	*
4AA/	8ee/L	8.cc\L	.
.	16aa/L	.	.
.	16ff#/JJ	16dd\Jk	.
4AA/	8ee/L	8.cc\L	.
.	16aa/L	.	.
.	16ff#/JJ	16dd\Jk	.
4AA/	8ee/L	8.cc\L	.
.	16aa/L	.	.
.	16ff#/JJ	16dd\Jk	.
*	*v	*v	*
=98	=98	=98
*	*^	*
*	*	*^	*
4AAA/	4cc\	16ee/LL)	8r	.
*	*	*v	*v	*
.	.	16aa/	.
.	.	16ee/	.
.	.	16cc/JJ	.
4r	2ryy	16a/LL	.
.	.	16e/	.
.	.	16c/	.
.	.	16A/JJ	.
16E/LL	.	4r	.
16C#/	.	.	.
16AA/	.	.	.
16EE/JJ	.	.	.
*	*v	*v	*
=99	=99	=99
4AAA/	8r	.
.	(8aa\L	p
4A\	8cc\	.
.	8dd\	.
4A\	8ee\	.
.	8ff#\J)	.
=100	=100	=100
4G\ 4e\	8r	.
.	(8bb\L	.
4G\ 4e\	8ee\	.
.	8ff#\	.
4G\ 4e\	8gg\)	.
.	([8ccc\J	.
=101	=101	=101
*k[f#c#]	*k[f#c#]	*k[f#c#]
4F#\ 4d\	8ccc\L]	mf
.	8ddd\	.
4F#\ 4d\	8ff#\	.
.	8gg\	.
4B\ 4d\	8aa\	.
.	8bb\J)	.
=102	=102	=102
.	(aaq/	.
4G\ 4g\	(8gg\L)	.
.	16ff#\L	.
.	16ee\JJ	.
4A\ 4f#\	4dd\)	.
.	(cc#q/	.
4G\ 4e\	(4cc#\)	.
=103	=103	=103
4D\ 4d\	8dd\L)	mf
.	(8ccc#\	.
4E\ 4e\	8ddd\	.
.	8ff#\	.
4F#\ 4f#\	8gg\	.
.	[8aa\J	.
*clefG2	*	*
=104	=104	=104
4G/ 4g/	8aa\L]	.
.	8aa#\	.
4G/ 4g/	8bb\)	.
.	(8ee\	.
4c#/ 4cc#/	8ff#\	.
.	[8gg\J	.
=105	=105	=105
4F#/ 4f#/	8gg\L]	.
.	8gg#\	.
4F#/ 4f#/	8aan\)	.
.	(8dd\	.
4B/ 4b/	8ee\	.
.	[8ff#\J	.
=106	=106	=106
4G/ 4g/	8ff#\] 8aa\L	.
.	8ee\ 8gg\J)	.
4A/ 4a/	8ee\ (8gg\L	.
.	8dd\ 8ff#\J)	.
4A/ 4a/	8dd\ (8ff#\L	.
.	8cc#\ 8ee\J)	.
*clefF4	*	*
=107	=107	=107
.	(eeq/	.
4DD/ 4D/	(8dd\L)	.
.	8cc#\	.
4EE/ 4E/	8dd\)	.
.	(8f#\	.
4FF#/ 4F#/	8g\	.
.	[8a\J	.
=108	=108	=108
4GG/ 4G/	8a/L]	>
.	8a#/	)
4GG/ 4G/	8b/)	]
.	(8e/	p
4C#\ 4c#\	8f#/	.
.	[8g/J	.
=109	=109	=109
4FF#/ 4F#/	8g/L]	.
.	8g#/	.
4FF#/ 4F#/	8an/)	.
.	(8d/	.
4BB\ 4B\	8e/	.
.	[8f#/J	.
=110	=110	=110
4GG/ 4G/	8f#/] 8a/L	.
.	8e/ 8g/J)	.
4AA\ 4A\	(8e/ 8g/L	.
.	8d/) 8f#/J	.
4AA\ 4A\	(8d/ 8f#/L	.
.	8c#/ 8e/J	.
=111	=111	=111
(4DD/ 4D/	8d/) 8f#/	.
.	([8ff#\	mf
4EE/ 4E/	16ff#\LL]	.
.	16dd\	.
.	16a\	.
.	16aa\JJ)	.
4FF#/ 4F#/	4r	.
=112	=112	=112
4GG/) 4G/	8f#/ 8a/L	p
.	8e/ 8g/	.
4AA\ 4A\	8e/ 8g/	.
.	8d/ 8f#/	.
4AA\ 4A\	8d/ 8f#/	.
.	8c#/ 8e/J	.
=113	=113	=113
(4DD/ 4D/	8r	.
.	([8ff#\	mf
4EE/ 4E/	16ff#\LL]	.
.	16dd\	.
.	16a\	.
.	16aa\JJ)	.
4FF#/ 4F#/	4r	.
*	*clefF4	*clefF4
=114	=114	=114
4GG/	8F#\ 8A\L	p
.	8E\ 8G\	.
4AA/	8E\ 8G\	.
.	8D\ 8F#\	.
4AAA/	8D\ 8F#\	.
.	8C#\ 8E\J	.
=115	=115	=115
2.DD/)	2.D\	.
==:|!	==:|!	==:|!
*-	*-	*-
!!!ENC: Kelly Leistikow and Craig Stuart Sapp
!!!END: 2005/06/30
